X: 18626
T: I Wish I Was Married
R: polka
M: 2/4
K: Eminor
|:G>A Bg|ed B>c|BA AG/A/|BA AB/A/|
G>A Bg|ed B>A|GE FD|E2 E2:|
|:d>d dg|ed B>c|BA AG/A/|BA AB|
d>d dg|ed B>A|GE FD|E2 E2:|

